X: 932
T: Güle Sor Bülbüle Sor
C: İsmail Baha Sürelsan
O: Turkey
F: http://compmusic.upf.edu/node/140
N: buselik--sarki--yuruksemai_ii--gule_sor--ismail_baha_surelsan
N: makam= buselik
N: form= sarki
N: usul= yuruksemai_ii = 6/8
M: 6/8
L: 1/16
K: C    
Q: 1/4=168
%%MIDI tuningsystem comma53
.G2.c2 .B2.c2 .e2.d2  | {e}d2c2 B2c4z2  | \
w:  ARANAĞME  |   | 
.G2.c2 .e2.g2 .a2.g2  | {b}a2f2 d2e4z2  | 
w:   |   | 
d2e2 f2e2 c2A2  | d4 ^c2d4z2  | B2c2 B2cB A2A^G  | A12  | \
w:   |   |   |   | 
.G2.c2 .B2.c2 .e2.d2  | 
w:  ARANAĞME  | 
{e}d2c2 B2c4z2  | .G2.c2 .e2.g2 .a2.g2  | \
w:   |   | 
{b}a2f2 d2e4z2  | d2e2 f2e2 c2A2  | 
w:   |   | 
d4 ^c2d4z2  | B2c2 B2cB A2A^G  | A12  | \
w:   |   |   | 
G2c2 B2c4z2  | e2d2 c2B2 c2z2  | 
w:  Gü *  le  sor   |  bül *  bü le  sor   | 
d2{e}d2 e2c2 d2e2  | f12  | e2g2 ^2/4f2{b}a2 g2=f2  | \
w:  ha *  *  li mi   |  hic  |  râ *  nı *  mı   | 
e2{f}e2 d2{d}c2 B2c2  | d2e2 d2c2 g2fe  | 
w:  din *  *  *  *  le   |  din  | 
e6ed cBA2  | G2c2 B2c4z2  | e2d2 c2B2 c2z2  | \
w:  le   SAZ  |  Gü *  le  sor   |  bül *  bü le  sor   | 
d2{e}d2 e2c2 d2e2  | 
w:  ha *  *  li mi   | 
f12  | e2g2 ^2/4f2{b}a2 g2=f2  | e2{f}e2 d2{d}c2 B2c2  | \
w:  hic  |  râ *  nı *  mı   |  din *  *  *  *  le   | 
d2e2 d2c2 g2fe  | e6gf ede2  | 
w:  din  |  le   SAZ  | 
e2e2 d2e2 c2d2  | a4 a2a2 e2g2  | f2d2 f2e2 c2A2  | \
w:  Ağ *  la rım   |  şim di  se viş  |  ti ği *  miz  *  o   | 
d6D6  | {d}c2B2 c2B2 A2B2  | 
w:  yer SAZ  |  *  ler *  *  de  *  se  | 
G2A2 B2c4z2  | B2c2 B2cB A2A^G  | A6gf ede2  | \
w:  nin *  *  le   |  se nin  |  le   SAZ  | 
e2e2 d2e2 c2d2  | 
w:  Ağ *  la rım   | 
a4 a2a2 e2g2  | f2d2 f2e2 c2A2  | d6D6  | \
w:  şim di  se viş  |  ti ği *  miz  *  o   |  yer SAZ  | 
{d}c2B2 c2B2 A2B2  | G2A2 B2c4z2  | 
w:  *  ler *  *  de  *  se  |  nin *  *  le   | 
B2c2 B2cB A2A^G  | A6e6  | e2e4e6  | e6e4e2  | \
w:  se nin  |  le   SAZ  |  Sö nü yor   |  nûr_ u  ha  | 
{g}f2e2 d2c2 B2A2  | 
w:  *  ya  | 
G6^3/4F/G/A/B/ c/d/e/^3/4f/g2  | g4 g2a2 g2f2  | \
w:  tın  SAZ  |  bu  te has  | 
e4 d2{d}c2 B2c2  | d2_7/8e2 d2ed {e}c2cB  | 
w:  sür *  *  le   |  e nîn  | 
c6e6  | e2e4e6  | e6e4e2  | {g}f2e2 d2c2 B2A2  | \
w:  le   SAZ  |  Sö nü yor   |  nûr_ u  ha  |  *  ya  | 
G6^3/4F/G/A/B/ c/d/e/^3/4f/g2  | 
w:  tın  SAZ  | 
g4 g2a2 g2f2  | e4 d2{d}c2 B2c2  | d2e2 d2c2 g2f2  | \
w:  bu  te has  |  sür *  *  le   |  e nîn  | 
e6gf ede2  | 
w:  le   SAZ  | 
e2e2 d2e2 c2d2  | a4 a2a2 e2g2  | f2d2 f2e2 c2A2  | \
w:  Ağ *  la rım   |  şim di  se viş  |  ti ği *  miz  *  o   | 
d6D6  | {d}c2B2 c2B2 A2B2  | 
w:  yer SAZ  |  *  ler *  *  de  *  se  | 
G2A2 B2c4z2  | B2c2 B2cB A2A^G  | A6gf ede2  | \
w:  nin *  *  le   |  se nin  |  le   SAZ  | 
e2e2 d2e2 c2d2  | 
w:  Ağ *  la rım   | 
a4 a2a2 e2g2  | f2d2 f2e2 c2A2  | d6D6  | \
w:  şim di  se viş  |  ti ği *  miz  *  o   |  yer SAZ  | 
{d}c2B2 c2B2 A2B2  | G2A2 B2c4z2  | 
w:  *  ler *  *  de  *  se  |  nin *  *  le   | 
B2c2 B2cB A2A^G  | A6|
w:  se nin  |  le    | 


